src/icons/svgs/24/circle-check.svg

<svg width="24" height="24" viewBox="0 0 24 24" fill="none" xmlns="http://www.w3.org/2000/svg">
<path d="M15.0859 8.83594L10.75 13.1758L8.87891 11.3359C8.5127 10.9697 7.91953 10.9697 7.55313 11.3359C7.18672 11.7021 7.18691 12.2953 7.55313 12.6617L10.0531 15.1617C10.2695 15.3477 10.5078 15.4375 10.75 15.4375C10.9922 15.4375 11.2297 15.3459 11.4129 15.1629L16.4129 10.1629C16.7791 9.79664 16.7791 9.20348 16.4129 8.83707C16.0467 8.47066 15.4531 8.47266 15.0859 8.83594ZM12 2C6.47656 2 2 6.47656 2 12C2 17.5234 6.47656 22 12 22C17.5234 22 22 17.5234 22 12C22 6.47656 17.5234 2 12 2ZM12 20.125C7.51953 20.125 3.875 16.4801 3.875 12C3.875 7.51992 7.51953 3.875 12 3.875C16.4805 3.875 20.125 7.51992 20.125 12C20.125 16.4801 16.4805 20.125 12 20.125Z" fill="black"/>
</svg>

<svg width="24" height="24" viewBox="0 0 24 24" xmlns="http://www.w3.org/2000/svg">
    <path d="m15.086 8.836-4.336 4.34-1.871-1.84a.937.937 0 1 0-1.326 1.326l2.5 2.5c.216.186.455.275.697.275a.93.93 0 0 0 .663-.274l5-5a.937.937 0 1 0-1.327-1.327zM12 2C6.477 2 2 6.477 2 12s4.477 10 10 10 10-4.477 10-10S17.523 2 12 2zm0 18.125c-4.48 0-8.125-3.645-8.125-8.125S7.52 3.875 12 3.875 20.125 7.52 20.125 12 16.48 20.125 12 20.125z"/>
</svg>
